X: 1
T: Gan Ainm
M: 4/4
L: 1/8
R: reel
K: Amaj
ce e2 fe e2 | ceec BcAB| ce e2 feec | BABc A3 B |
ce e2 ce e2 | ceec  d3 c | B2 BA B2 ce | ecBc A4 |
|:c2 cB cdec | B2 BA BcAB | c2 cB cdec | BABc A3 B :|
